packages/ffe-icons/icons/open/400/sm/breaking_news.svg

<svg xmlns="http://www.w3.org/2000/svg" height="20" viewBox="0 -960 960 960" width="20"><path d="M287.79-288q15.21 0 25.71-10.29t10.5-25.5q0-15.21-10.29-25.71t-25.5-10.5q-15.21 0-25.71 10.29t-10.5 25.5q0 15.21 10.29 25.71t25.5 10.5Zm.42-384q-15.21 0-25.71 10.35T252-636v168q0 15.3 10.29 25.65Q272.58-432 287.79-432t25.71-10.35Q324-452.7 324-468v-168q0-15.3-10.29-25.65Q303.42-672 288.21-672ZM684-288q15.3 0 25.65-10.29Q720-308.58 720-323.79t-10.35-25.71Q699.3-360 684-360H492q-15.3 0-25.65 10.29Q456-339.42 456-324.21t10.35 25.71Q476.7-288 492-288h192Zm0-156q15.3 0 25.65-10.29Q720-464.58 720-479.79t-10.35-25.71Q699.3-516 684-516H492q-15.3 0-25.65 10.29Q456-495.42 456-480.21t10.35 25.71Q476.7-444 492-444h192Zm0-156q15.3 0 25.65-10.29Q720-620.58 720-635.79t-10.35-25.71Q699.3-672 684-672H492q-15.3 0-25.65 10.29Q456-651.42 456-636.21t10.35 25.71Q476.7-600 492-600h192ZM168-144q-29.7 0-50.85-21.15Q96-186.3 96-216v-528q0-29.7 21.15-50.85Q138.3-816 168-816h624q29.7 0 50.85 21.15Q864-773.7 864-744v528q0 29.7-21.15 50.85Q821.7-144 792-144H168Zm0-72h624v-528H168v528Zm0 0v-528 528Z"/></svg>

<svg xmlns="http://www.w3.org/2000/svg" height="20" viewBox="0 -960 960 960" width="20"><path d="M287.789-288Q303-288 313.5-298.289q10.5-10.29 10.5-25.5Q324-339 313.711-349.5q-10.29-10.5-25.5-10.5Q273-360 262.5-349.711q-10.5 10.29-10.5 25.5Q252-309 262.289-298.5q10.29 10.5 25.5 10.5Zm.422-384Q273-672 262.5-661.65 252-651.3 252-636v168q0 15.3 10.289 25.65 10.29 10.35 25.5 10.35Q303-432 313.5-442.35 324-452.7 324-468v-168q0-15.3-10.289-25.65-10.29-10.35-25.5-10.35ZM684-288q15.3 0 25.65-10.289 10.35-10.29 10.35-25.5Q720-339 709.65-349.5 699.3-360 684-360H492q-15.3 0-25.65 10.289-10.35 10.29-10.35 25.5Q456-309 466.35-298.5 476.7-288 492-288h192Zm0-156q15.3 0 25.65-10.289 10.35-10.29 10.35-25.5Q720-495 709.65-505.5 699.3-516 684-516H492q-15.3 0-25.65 10.289-10.35 10.29-10.35 25.5Q456-465 466.35-454.5 476.7-444 492-444h192Zm0-156q15.3 0 25.65-10.289 10.35-10.29 10.35-25.5Q720-651 709.65-661.5 699.3-672 684-672H492q-15.3 0-25.65 10.289-10.35 10.29-10.35 25.5Q456-621 466.35-610.5 476.7-600 492-600h192ZM168-144q-29.7 0-50.85-21.15Q96-186.3 96-216v-528q0-29.7 21.15-50.85Q138.3-816 168-816h624q29.7 0 50.85 21.15Q864-773.7 864-744v528q0 29.7-21.15 50.85Q821.7-144 792-144H168Zm0-72h624v-528H168v528Zm0 0v-528 528Z"/></svg>
